X: 7
T: Wallop The Potlid
R: jig
M: 6/8
L: 1/8
K: Gmaj
|:A|BAB cBc|dgg fdc|BAB cBc|dgf g2a|bag agf|~g3 fdc|BAG Adc|AGF G2:|


Tune 1454	Setting 1454

